src/sources/forus-webshop/resources/_webshop-common/assets/img/icon-menu/icon-menu-my-vouchers2.svg

<svg width="26" height="20" viewBox="0 0 26 20" fill="none" xmlns="http://www.w3.org/2000/svg">
<path d="M25.5001 7.5V2.5C25.5001 1.1125 24.3751 0 23.0001 0H3.00012C1.62512 0 0.512622 1.1125 0.512622 2.5V7.5C1.88762 7.5 3.00012 8.625 3.00012 10C3.00012 11.375 1.88762 12.5 0.500122 12.5V17.5C0.500122 18.875 1.62512 20 3.00012 20H23.0001C24.3751 20 25.5001 18.875 25.5001 17.5V12.5C24.1251 12.5 23.0001 11.375 23.0001 10C23.0001 8.625 24.1251 7.5 25.5001 7.5ZM14.2501 16.875H11.7501V14.375H14.2501V16.875ZM14.2501 11.25H11.7501V8.75H14.2501V11.25ZM14.2501 5.625H11.7501V3.125H14.2501V5.625Z" fill="#939698"/>
</svg>

<svg width="26" height="20"  viewBox="0 0 26 20" fill="none" xmlns="http://www.w3.org/2000/svg"><path d="M25.5 7.5v-5A2.5 2.5 0 0023 0H3A2.489 2.489 0 00.513 2.5v5A2.497 2.497 0 013 10a2.5 2.5 0 01-2.5 2.5v5C.5 18.875 1.625 20 3 20h20c1.375 0 2.5-1.125 2.5-2.5v-5A2.507 2.507 0 0123 10c0-1.375 1.125-2.5 2.5-2.5zm-11.25 9.375h-2.5v-2.5h2.5v2.5zm0-5.625h-2.5v-2.5h2.5v2.5zm0-5.625h-2.5v-2.5h2.5v2.5z" fill="#939698"/></svg>
